images/lime-no-logo.svg

<?xml version="1.0" encoding="UTF-8"?>
<svg width="137px" height="65px" viewBox="0 0 137 65" version="1.1" xmlns="http://www.w3.org/2000/svg" xmlns:xlink="http://www.w3.org/1999/xlink">
    <!-- Generator: Sketch 41.2 (35397) - http://www.bohemiancoding.com/sketch -->
    <title>Group 11</title>
    <desc>Created with Sketch.</desc>
    <defs></defs>
    <g id="Pages" stroke="none" stroke-width="1" fill="none" fill-rule="evenodd">
        <g id="Web-Mobile" transform="translate(-168.000000, -3989.000000)">
            <g id="Logo" transform="translate(13.000000, 550.000000)">
                <g id="Logo:dont" transform="translate(2.000000, 3279.000000)">
                    <g id="Group-11" transform="translate(153.000000, 160.000000)">
                        <rect id="Rectangle-7" fill="#A4CC44" x="1.84741111e-13" y="0" width="137" height="65" rx="4"></rect>
                        <path d="M26.275205,33.9959967 C25.05147,32.6819107 23.6578132,32.0122102 22.1300077,32.0122102 C20.8265287,32.0122102 19.7101127,32.481691 18.8128064,33.3976388 C17.917736,34.3204908 17.4646112,35.4704119 17.4646112,36.8182513 C17.4646112,37.7549116 17.6635986,38.6048866 18.060828,39.3298202 C18.459548,40.0654935 19.028935,40.6416048 19.7525932,41.0566196 C20.4725249,41.4670318 21.2915778,41.6802927 22.1769597,41.6802927 C22.9319193,41.6802927 23.6309835,41.5330046 24.2570111,41.2453325 C24.8681333,40.9584276 25.549311,40.4329466 26.2729692,39.6988076 C26.3474963,39.7770543 27.864868,41.4094974 27.9461026,41.4877441 C26.9697976,42.4627607 26.0344824,43.1462695 25.1647512,43.5252294 C24.281605,43.9110935 23.2598385,44.1113133 22.133734,44.1113133 C20.0521921,44.1113133 18.3224181,43.4162977 16.9980716,42.0600198 C15.6692534,40.6999063 15,38.9385862 15,36.8105801 C15,35.4358912 15.3040706,34.1985178 15.9062495,33.1306791 C16.5121549,32.0666761 17.3900841,31.1921531 18.5132075,30.5393293 C19.6430383,29.8903411 20.874226,29.5635456 22.1709976,29.5635456 C23.2754892,29.5635456 24.3553869,29.8059573 25.3778987,30.2861779 C26.3855051,30.7602614 27.2604533,31.442236 27.996781,32.3098549 L26.275205,33.9959967 Z M30.1573216,34.6679986 C29.0260002,35.7335359 28.4521416,37.0752384 28.4521416,38.6631881 C28.4521416,40.1437403 28.9589258,41.4225385 29.9605701,42.458925 C30.9637049,43.4907088 32.1859493,44.023861 33.5989831,44.023861 C34.5633638,44.023861 35.4539626,43.7822165 36.2536384,43.3104343 C37.0533142,42.8424878 37.6920114,42.1789242 38.1548247,41.3481273 C38.6154022,40.508892 38.848672,39.6029169 38.848672,38.6447771 C38.848672,37.6935415 38.6191285,36.7914019 38.1585511,35.9698106 C37.6987189,35.1451507 37.0533142,34.4846556 36.230535,34.0067365 C35.4092464,33.5265159 34.5231191,33.2879399 33.5922757,33.2879399 C32.3029569,33.2879399 31.1462962,33.753585 30.1573216,34.6679986 Z M31.626996,40.8809479 C31.1082874,40.3102066 30.8422257,39.5653277 30.8422257,38.6555169 C30.8422257,37.7687198 31.1120138,37.0315122 31.6374298,36.4630723 C32.1665723,35.8892624 32.8380614,35.6008232 33.6325203,35.6008232 C34.4418846,35.6008232 35.1215718,35.8861939 35.6432615,36.4515654 C36.1656964,37.0138683 36.4280318,37.7556787 36.4280318,38.6555169 C36.4280318,39.5507523 36.1612248,40.2956311 35.6246297,40.8702082 C35.0984684,41.4463194 34.4239981,41.7332243 33.6220865,41.7332243 C32.8224107,41.7332243 32.1516668,41.4463194 31.626996,40.8809479 Z M40.3421951,29.8166971 L42.742713,29.8166971 L42.742713,43.7599699 L40.3421951,43.7599699 L40.3421951,29.8166971 Z M45.946633,34.6679986 C44.8145664,35.7335359 44.2429436,37.0752384 44.2429436,38.6631881 C44.2429436,40.1437403 44.7504731,41.4225385 45.7506268,42.458925 C46.7530163,43.4907088 47.976006,44.023861 49.3920209,44.023861 C50.3541658,44.023861 51.2447646,43.7822165 52.0451857,43.3104343 C52.8403898,42.8424878 53.4813229,42.1789242 53.9433909,41.3481273 C54.4054589,40.508892 54.639474,39.6029169 54.639474,38.6447771 C54.639474,37.6935415 54.4076947,36.7914019 53.9486078,35.9698106 C53.487285,35.1451507 52.8403898,34.4846556 52.0220822,34.0067365 C51.1993031,33.5265159 50.3131758,33.2879399 49.3823324,33.2879399 C48.0967399,33.2879399 46.939334,33.753585 45.946633,34.6679986 Z M47.4207791,40.8809479 C46.8961083,40.3102066 46.6330276,39.5653277 46.6330276,38.6555169 C46.6330276,37.7687198 46.8998347,37.0315122 47.4289771,36.4630723 C47.9588647,35.8892624 48.6288634,35.6008232 49.4218317,35.6008232 C50.2341771,35.6008232 50.9101379,35.8861939 51.4325729,36.4515654 C51.9535173,37.0138683 52.2195791,37.7556787 52.2195791,38.6555169 C52.2195791,39.5507523 51.9512815,40.2956311 51.4184127,40.8702082 C50.888525,41.4463194 50.211819,41.7332243 49.4121432,41.7332243 C48.6117221,41.7332243 47.9417235,41.4463194 47.4207791,40.8809479 Z M60.3437783,33.5748448 C59.8884177,33.759722 59.3734354,34.1056956 58.8070295,34.5935874 L58.7108895,34.6795055 L58.7108895,33.5510639 L56.3081358,33.5510639 L56.3081358,43.7599699 L58.7108895,43.7599699 L58.7108895,39.6742595 C58.7108895,38.5834071 58.7488983,37.8952955 58.8241707,37.5631302 C58.9672627,36.9348544 59.2281076,36.4346886 59.5985073,36.0787424 C59.9748691,35.7204948 60.430975,35.5402203 60.9549005,35.5402203 C61.3573468,35.5402203 61.701662,35.6491521 61.9803934,35.8654815 C62.2524173,36.088715 62.4499139,36.4101406 62.5609594,36.8243883 C62.6712595,37.2394033 62.7241738,38.044885 62.7241738,39.298368 L62.7241738,43.7599699 L65.0904094,43.7599699 L65.0904094,36.9923888 C65.0904094,35.8263581 64.8042254,34.9288213 64.2363286,34.3412032 C63.5558961,33.636982 62.7211928,33.2871727 61.7478688,33.2871727 C61.2694048,33.2871727 60.7998841,33.3830634 60.3437783,33.5748448 Z M67.3687028,33.5510639 L69.7707112,33.5510639 L69.7707112,43.7599699 L67.3687028,43.7599699 L67.3687028,33.5510639 Z M73.0625731,34.7892045 C72.163031,35.794906 71.706925,37.0990193 71.706925,38.6762293 C71.706925,40.1851651 72.1786818,41.4677989 73.1028179,42.4850073 C74.0388781,43.5045171 75.1515679,44.023861 76.4244907,44.023861 C76.9871701,44.023861 77.5207844,43.919532 78.0067009,43.7062711 C78.4903818,43.5022157 78.9792796,43.1547078 79.4674321,42.6829256 L79.5635721,42.5816651 L79.5635721,43.7599699 L81.9663258,43.7599699 L81.9663258,33.5510639 L79.5635721,33.5510639 L79.5635721,34.779999 L79.4644512,34.6687658 C79.02176,34.2123261 78.5358435,33.8625169 78.0171347,33.6308449 C77.4999166,33.4007073 76.9417088,33.2871727 76.3499634,33.2871727 C75.0636257,33.2871727 73.9598796,33.7942427 73.0625731,34.7892045 Z M74.0970093,38.6447771 C74.0970093,37.7495417 74.3593446,37.0031286 74.8847605,36.4277845 C75.40496,35.8493719 76.0712324,35.563234 76.8612197,35.563234 C77.6690933,35.563234 78.3465444,35.8417006 78.8749418,36.4147433 C79.4055747,36.9785806 79.6686553,37.7249937 79.6686553,38.6348045 C79.6686553,39.5653277 79.4055747,40.3270833 78.8749418,40.9016603 C78.3465444,41.4785386 77.6735649,41.7685121 76.8716531,41.7685121 C76.0913543,41.7685121 75.4258273,41.4701003 74.8951944,40.8863178 C74.3653069,40.3033024 74.0970093,39.548451 74.0970093,38.6447771 Z M84.3683342,29.5643128 L86.7688523,29.5643128 L86.7688523,43.7599699 L84.3683342,43.7599699 L84.3683342,29.5643128 Z M93.3622647,29.5566415 L93.3622647,43.7599699 L99.5837869,43.7599699 L99.5837869,41.3412232 L95.8268758,41.3412232 L95.8268758,29.5566415 L93.3622647,29.5566415 Z M107.915172,29.7821764 C107.535829,30.1028349 107.306285,30.5454663 107.242192,31.0954953 C107.2094,31.3394411 107.184806,32.1449229 107.178844,33.4873925 L107.178844,33.5518311 L106.282283,33.5518311 L106.282283,35.6192342 L107.178844,35.6192342 L107.178844,43.7599699 L109.583833,43.7599699 L109.583833,35.6192342 L111.173496,35.6192342 L111.173496,33.5518311 L109.583833,33.5518311 L109.590541,32.1963203 C109.590541,31.8771961 109.644945,31.6700722 109.7545,31.5634418 C109.908026,31.4230579 110.138315,31.3517151 110.443876,31.3517151 C110.664476,31.3517151 110.947679,31.4084824 111.28007,31.5013046 L111.28007,29.6525322 C110.650316,29.4216275 110.070495,29.2996545 109.568928,29.2996545 C108.858684,29.2996545 108.301222,29.4607509 107.915172,29.7821764 Z M113.247585,34.8275607 C112.274262,35.8493719 111.780147,37.1573208 111.780147,38.711517 C111.780147,40.2219871 112.274262,41.5007853 113.251312,42.5080211 C114.223145,43.5121883 115.502775,44.023861 117.059647,44.023861 C118.0598,44.023861 118.933258,43.8366824 119.660643,43.4722978 C120.369395,43.1171187 120.980517,42.562487 121.491773,41.8283479 C121.362096,41.7685121 119.538418,40.8886191 119.47358,40.857167 C118.793147,41.5261005 117.978566,41.8674713 117.039524,41.8674713 C116.239848,41.8674713 115.56985,41.645772 115.054122,41.2000721 C114.542867,40.758975 114.216438,40.153713 114.100175,39.4065327 L114.088251,39.3344229 L122.189347,39.3344229 C122.195309,39.2416007 122.200526,38.900997 122.200526,38.900997 C122.200526,37.2232936 121.707902,35.8493719 120.730106,34.8275607 C119.758273,33.8049824 118.478643,33.2879399 116.915809,33.2879399 C115.454333,33.2879399 114.216438,33.8049824 113.247585,34.8275607 Z M117.035798,35.3545759 C117.693873,35.3545759 118.281891,35.5402203 118.781223,35.9046049 C119.280554,36.2735923 119.618162,36.7599498 119.788084,37.3406638 L119.811933,37.4219791 L114.170977,37.4219791 L114.211221,37.3345268 C114.495915,36.6916757 114.81489,36.2321675 115.150262,35.9698106 C115.689838,35.563234 116.3263,35.3545759 117.035798,35.3545759 Z M101.206242,26.3792078 C101.206242,27.6986636 101.955985,28.7749407 102.871923,28.7749407 C103.788606,28.7749407 104.532386,27.6986636 104.532386,26.3792078 C104.532386,25.0559163 103.788606,23.9827078 102.871923,23.9827078 C101.955985,23.9827078 101.206242,25.0559163 101.206242,26.3792078 Z M88.7259339,22.6985397 C88.7259339,24.8909843 89.3310937,26.7451266 90.0391011,26.7451266 C90.7553069,26.7451266 91.3552497,24.8909843 91.3552497,22.6985397 C91.3552497,20.5045608 90.7553069,18.6527199 90.0391011,18.6527199 C89.3310937,18.6527199 88.7259339,20.5045608 88.7259339,22.6985397 Z M66.6241768,27.2752103 C66.6241768,28.4611863 67.5609828,29.424696 68.7124263,29.424696 C69.8668512,29.424696 70.8029113,28.4611863 70.8029113,27.2752103 C70.8029113,26.0846316 69.8668512,25.1241905 68.7124263,25.1241905 C67.5609828,25.1241905 66.6241768,26.0846316 66.6241768,27.2752103 Z M76.4826219,27.2046348 C77.4865019,27.2046348 78.3077903,25.9733984 78.3077903,24.4652297 C78.3077903,22.9532254 77.4865019,21.7212219 76.4826219,21.7212219 C75.4757606,21.7212219 74.6559624,22.9532254 74.6559624,24.4652297 C74.6559624,25.9733984 75.4757606,27.2046348 76.4826219,27.2046348 Z M95.1017274,19.050858 C95.1017274,20.7270272 95.8000462,22.0925106 96.6571079,22.0925106 C97.5119336,22.0925106 98.2117431,20.7270272 98.2117431,19.050858 C98.2117431,17.369319 97.5454708,16 96.6906451,16 C95.8313474,16 95.1017274,17.369319 95.1017274,19.050858 Z M82.10122,20.5513555 C82.10122,22.3379908 82.7093611,23.7916935 83.4620845,23.7916935 C84.216299,23.7916935 84.8289118,22.3379908 84.8289118,20.5513555 C84.8289118,18.7654874 84.216299,17.314086 83.4620845,17.314086 C82.7093611,17.314086 82.10122,18.7654874 82.10122,20.5513555 Z M101.670546,33.5510639 L104.07479,33.5510639 L104.07479,43.7599699 L101.670546,43.7599699 L101.670546,33.5510639 Z M124.642034,42.574761 C124.642034,43.24753 124.138231,43.7653397 123.484628,43.7653397 C122.829535,43.7653397 122.313062,43.24753 122.313062,42.574761 C122.313062,41.9158002 122.829535,41.3979905 123.492081,41.3979905 C124.138231,41.3979905 124.642034,41.9158002 124.642034,42.574761 Z M122.564964,42.574761 C122.564964,43.1217214 122.959212,43.5513117 123.492081,43.5513117 C124.001101,43.558983 124.390133,43.1217214 124.390133,42.5816651 C124.390133,42.0416087 124.001101,41.6058815 123.477175,41.6058815 C122.959212,41.6058815 122.564964,42.0416087 122.564964,42.574761 Z M123.275207,43.2252834 L123.052371,43.2252834 L123.052371,41.9902114 C123.174595,41.9687319 123.304272,41.9533893 123.469723,41.9533893 C123.670946,41.9533893 123.771557,41.9902114 123.843849,42.04928 C123.915395,42.1006774 123.964582,42.1973352 123.964582,42.3162397 C123.964582,42.4635278 123.857264,42.5601856 123.735039,42.6046788 L123.735039,42.6192543 C123.837141,42.6637475 123.893782,42.7596382 123.9303,42.9222688 C123.964582,43.1071461 123.994393,43.1815572 124.023459,43.2252834 L123.79317,43.2252834 C123.756652,43.1815572 123.727586,43.070324 123.692558,42.9076934 C123.663493,42.7673095 123.58524,42.7074737 123.419044,42.7074737 L123.275207,42.7074737 L123.275207,43.2252834 Z M123.275207,42.5302677 L123.426497,42.5302677 C123.58524,42.5302677 123.735039,42.4788703 123.735039,42.3377192 C123.735039,42.2195819 123.65604,42.1305953 123.44811,42.1305953 C123.362403,42.1305953 123.311725,42.1382666 123.275207,42.1459378 L123.275207,42.5302677 Z" id="Combined-Shape" fill="#FFFFFF"></path>
                        <g id="Don't-Icon" transform="translate(49.000000, 13.000000)">
                            <path d="M40.7992,20 C40.7992,31.046 31.8452,40 20.7992,40 C9.7542,40 0.7992,31.046 0.7992,20 C0.7992,8.954 9.7542,0 20.7992,0 C31.8452,0 40.7992,8.954 40.7992,20" id="Fill-1" fill="#FEFEFE"></path>
                            <path d="M39.7992,20 C39.7992,30.493 31.2932,39 20.7992,39 C10.3062,39 1.7992,30.493 1.7992,20 C1.7992,9.506 10.3062,1 20.7992,1 C31.2932,1 39.7992,9.506 39.7992,20" id="Fill-3" fill="#7E2724"></path>
                            <polygon id="Fill-5" fill="#FEFEFE" points="26.7367 28.4238 20.7997 22.4868 14.8617 28.4238 12.3757 25.9378 18.3127 19.9998 12.3757 14.0628 14.8617 11.5758 20.7997 17.5128 26.7367 11.5758 29.2237 14.0628 23.2867 19.9998 29.2237 25.9378"></polygon>
                        </g>
                    </g>
                </g>
            </g>
        </g>
    </g>
</svg>

<svg width="137" height="65" viewBox="0 0 137 65" xmlns="http://www.w3.org/2000/svg"><title>Group 11</title><g fill="none" fill-rule="evenodd"><rect fill="#A4CC44" width="137" height="65" rx="4"/><path d="M26.275 33.996c-1.224-1.314-2.617-1.984-4.145-1.984-1.303 0-2.42.47-3.317 1.386-.895.922-1.348 2.072-1.348 3.42 0 .937.199 1.787.596 2.512a4.353 4.353 0 0 0 1.692 1.727c.72.41 1.539.623 2.424.623.755 0 1.454-.147 2.08-.435.611-.287 1.292-.812 2.016-1.546.074.078 1.592 1.71 1.673 1.789-.976.975-1.912 1.658-2.781 2.037-.883.386-1.905.586-3.031.586-2.082 0-3.812-.695-5.136-2.051C15.67 40.7 15 38.939 15 36.81c0-1.374.304-2.611.906-3.68.606-1.063 1.484-1.938 2.607-2.59a7.255 7.255 0 0 1 3.658-.976c1.104 0 2.184.242 3.207.722a7.74 7.74 0 0 1 2.619 2.024l-1.722 1.686zm3.882.672c-1.131 1.066-1.705 2.407-1.705 3.995 0 1.48.507 2.76 1.509 3.796 1.003 1.032 2.225 1.565 3.638 1.565a5.147 5.147 0 0 0 4.556-2.676c.46-.84.694-1.745.694-2.703 0-.951-.23-1.854-.69-2.675a5.122 5.122 0 0 0-1.928-1.963 5.157 5.157 0 0 0-2.639-.72c-1.289 0-2.446.467-3.435 1.381zm1.47 6.213c-.519-.57-.785-1.316-.785-2.225 0-.887.27-1.624.795-2.193.53-.574 1.201-.862 1.996-.862.809 0 1.489.285 2.01.85.523.563.785 1.305.785 2.205 0 .895-.267 1.64-.803 2.214-.527.576-1.201.863-2.003.863-.8 0-1.47-.287-1.995-.852zm8.715-11.064h2.4V43.76h-2.4V29.817zm5.605 4.851c-1.132 1.066-1.704 2.407-1.704 3.995 0 1.48.507 2.76 1.508 3.796 1.002 1.032 2.225 1.565 3.641 1.565a5.15 5.15 0 0 0 2.653-.714 5.145 5.145 0 0 0 1.898-1.962c.462-.84.696-1.745.696-2.703 0-.951-.231-1.854-.69-2.675a5.16 5.16 0 0 0-1.927-1.963 5.166 5.166 0 0 0-2.64-.72c-1.285 0-2.443.467-3.435 1.381zm1.474 6.213c-.525-.57-.788-1.316-.788-2.225 0-.887.267-1.624.796-2.193.53-.574 1.2-.862 1.993-.862.812 0 1.488.285 2.01.85.522.563.788 1.305.788 2.205 0 .895-.269 1.64-.802 2.214-.53.576-1.206.863-2.006.863-.8 0-1.47-.287-1.991-.852zm12.923-7.306c-.456.185-.97.53-1.537 1.019l-.096.086v-1.13h-2.403v10.21h2.403v-4.086c0-1.09.038-1.779.113-2.11.143-.63.404-1.13.775-1.485a1.905 1.905 0 0 1 1.356-.539c.402 0 .747.11 1.025.325.272.224.47.545.581.96.11.414.163 1.22.163 2.473v4.462h2.366v-6.768c0-1.166-.286-2.063-.854-2.65a3.335 3.335 0 0 0-2.488-1.055 3.59 3.59 0 0 0-1.404.288zm7.025-.024h2.402V43.76h-2.402V33.551zm5.694 1.238c-.9 1.006-1.356 2.31-1.356 3.887 0 1.51.472 2.792 1.396 3.809.936 1.02 2.049 1.539 3.321 1.539.563 0 1.097-.104 1.583-.318.483-.204.972-.551 1.46-1.023l.097-.101v1.178h2.402V33.551h-2.402v1.229l-.1-.111a4.697 4.697 0 0 0-1.447-1.038 4.062 4.062 0 0 0-1.667-.344c-1.286 0-2.39.507-3.287 1.502zm1.034 3.856c0-.895.262-1.642.788-2.217.52-.579 1.186-.865 1.976-.865.808 0 1.486.279 2.014.852.53.564.794 1.31.794 2.22 0 .93-.263 1.692-.794 2.267-.528.577-1.201.867-2.003.867-.78 0-1.446-.299-1.977-.883-.53-.583-.798-1.338-.798-2.241zm10.271-9.08h2.4V43.76h-2.4V29.564zm8.994-.008V43.76h6.222v-2.419h-3.757V29.557h-2.465zm14.553.225c-.38.32-.609.763-.673 1.313-.033.244-.057 1.05-.063 2.392v.065h-.897v2.067h.897v8.141h2.405v-8.14h1.59v-2.068h-1.59l.007-1.356c0-.319.054-.526.163-.633.154-.14.384-.211.69-.211.22 0 .504.056.836.15v-1.85c-.63-.23-1.21-.352-1.711-.352-.71 0-1.268.16-1.654.482zm5.333 5.046c-.974 1.021-1.468 2.33-1.468 3.884 0 1.51.494 2.789 1.471 3.796.972 1.004 2.252 1.516 3.809 1.516 1 0 1.873-.187 2.6-.552.71-.355 1.32-.91 1.832-1.644-.13-.06-1.954-.94-2.018-.97-.68.668-1.495 1.01-2.434 1.01-.8 0-1.47-.222-1.986-.668-.511-.441-.838-1.046-.954-1.793l-.012-.073h8.101c.006-.092.012-.433.012-.433 0-1.678-.493-3.052-1.47-4.073-.973-1.023-2.252-1.54-3.815-1.54-1.462 0-2.7.517-3.668 1.54zm3.788.527c.658 0 1.246.185 1.745.55.5.369.837.855 1.007 1.436l.024.081h-5.641l.04-.087c.285-.643.604-1.103.94-1.365a3.067 3.067 0 0 1 1.885-.615zm-15.83-8.976c0 1.32.75 2.396 1.666 2.396.917 0 1.66-1.076 1.66-2.396 0-1.323-.743-2.396-1.66-2.396-.916 0-1.666 1.073-1.666 2.396zm-12.48-3.68c0 2.192.605 4.046 1.313 4.046.716 0 1.316-1.854 1.316-4.046 0-2.194-.6-4.046-1.316-4.046-.708 0-1.313 1.852-1.313 4.046zm-22.102 4.576c0 1.186.937 2.15 2.088 2.15 1.155 0 2.09-.964 2.09-2.15 0-1.19-.935-2.15-2.09-2.15-1.151 0-2.088.96-2.088 2.15zm9.859-.07c1.004 0 1.825-1.232 1.825-2.74 0-1.512-.821-2.744-1.825-2.744-1.007 0-1.827 1.232-1.827 2.744 0 1.508.82 2.74 1.827 2.74zm18.619-8.154c0 1.676.698 3.042 1.555 3.042.855 0 1.555-1.366 1.555-3.042 0-1.682-.667-3.051-1.521-3.051-.86 0-1.59 1.37-1.59 3.05zm-13 1.5c0 1.787.607 3.24 1.36 3.24.754 0 1.367-1.453 1.367-3.24 0-1.786-.613-3.237-1.367-3.237-.753 0-1.36 1.451-1.36 3.237zm19.569 13h2.404V43.76h-2.404V33.551zm22.971 9.024c0 .673-.504 1.19-1.157 1.19a1.167 1.167 0 0 1-1.172-1.19c0-.66.517-1.177 1.18-1.177.645 0 1.149.518 1.149 1.177zm-2.077 0c0 .547.394.976.927.976.51.008.898-.43.898-.97s-.389-.975-.913-.975c-.518 0-.912.436-.912.969zm.71.65h-.223V41.99c.123-.021.252-.037.418-.037.2 0 .302.037.374.096.071.052.12.148.12.267 0 .148-.107.244-.229.289v.014c.102.045.159.14.195.303.035.185.064.26.093.303h-.23c-.036-.043-.065-.155-.1-.317-.03-.14-.108-.2-.274-.2h-.144v.517zm0-.695h.151c.16 0 .309-.051.309-.192 0-.118-.079-.207-.287-.207a.804.804 0 0 0-.173.015v.384z" fill="#FFF"/><path d="M89.8 33c0 11.046-8.955 20-20 20-11.046 0-20-8.954-20-20s8.954-20 20-20c11.045 0 20 8.954 20 20" fill="#FEFEFE"/><path d="M88.8 33c0 10.493-8.507 19-19 19-10.494 0-19-8.507-19-19 0-10.494 8.506-19 19-19 10.493 0 19 8.506 19 19" fill="#7E2724"/><path fill="#FEFEFE" d="M75.737 41.424L69.8 35.487l-5.938 5.937-2.486-2.486L67.313 33l-5.937-5.937 2.486-2.487 5.938 5.937 5.937-5.937 2.487 2.487L72.287 33l5.937 5.938z"/></g></svg>
